!!!COM:	Josquin des Prez
!!!CDT:	~1450-1521/08/27
!!!OPR:	Missa Sine nomine
!!!OTA: Missa Ad fugam
!!!ONM:	2
!!!OTL:	Gloria
!!!AGN:	Mass; Gloria
!!!SCT:	NJE 12.2
!!!SCA:	New Josquin Edition 12.2
!!!voices: 4
**kern	**kern	**kern	**kern
*staff4	*staff3	*staff2	*staff1
*Ivox	*Ivox	*Ivox	*Ivox
*I"Bassus	*I"Tenor	*I"Altus	*I"Superius
*I'B	*I'T	*I'A	*I'S
*>[A,B]	*>[A,B]	*>[A,B]	*>[A,B]
*>Gloria[A]	*>Gloria[A]	*>Gloria[A]	*>Gloria[A]
*>QuiTollis[B]	*>QuiTollis[B]	*>QuiTollis[B]	*>QuiTollis[B]
*clefF4	*clefGv2	*clefGv2	*clefG2
*k[]	*k[]	*k[]	*k[]
*>A	*>A	*>A	*>A
!!section: Gloria
!!!OMD: Gloria
*M3/1	*M3/1	*M3/1	*M3/1
*met(O)	*met(O)	*met(O)	*met(O)
=1-	=1-	=1-	=1-
!LO:TX:Z=10:t=Tenor in diapente	!	!	!
0.r	0.r	1d	0.r
.	.	1d	.
.	.	1G	.
=2	=2	=2	=2
0.r	0.r	2.d\	1a
.	.	4c\	.
.	.	2A/	1a
.	.	2c\	.
.	.	1B	1d
=3	=3	=3	=3
0.r	0.r	1A	2.a/
.	.	.	4g/
.	.	2r	2e/
.	.	2G/	2g/
.	.	2A/	1f
.	.	2B\	.
=4	=4	=4	=4
1A	0.r	2c\	0e
.	.	1d	.
1A	.	.	.
.	.	2c#i\	.
1D	.	1d	1r
=5	=5	=5	=5
!!linebreak:default
2.A\	1e	0.r	0.r
4G\	.	.	.
2E\	1e	.	.
2G\	.	.	.
1F	1A	.	.
=6	=6	=6	=6
1E	2.e\	0.r	0.r
.	4d\	.	.
2r	2B\	.	.
2D\	2d\	.	.
2E\	1c	.	.
2F\	.	.	.
=7	=7	=7	=7
2G\	1B	0.r	0.r
2D\	.	.	.
2E\	2r	.	.
2F\	2A/	.	.
2G\	2B\	.	.
2A\	2c\	.	.
=8	=8	=8	=8
1D	2d\	0.r	0.r
.	2A/	.	.
2r	2B\	.	.
2A\	2c\	.	.
2G\	2d\	.	.
2E\	2e\	.	.
=9	=9	=9	=9
!!linebreak:default
1F	1A	0.r	0.r
1E	2r	.	.
.	2e\	.	.
2r	2d\	.	.
2G\	2B\	.	.
=10	=10	=10	=10
2A\	1c	0.r	0.r
2A\	.	.	.
2G\	1B	.	.
2E\	.	.	.
1F	2r	.	.
.	2d\	.	.
=11	=11	=11	=11
1E	2e\	0.r	1g
.	2e\	.	.
1r	2d\	.	2f/
.	2B\	.	2g/
1r	1c	.	1e
=12	=12	=12	=12
0.r	1B	1d	1d
.	1r	2c\	2r
.	.	2d\	2a/
.	1r	1B	2b\
.	.	.	2g/
=13	=13	=13	=13
!!pagebreak:default
0.r	0.r	1A	2a/
.	.	.	2cc\
.	.	2r	1b
.	.	2e\	.
.	.	2f\	2a/
.	.	2d\	2dd\
=14	=14	=14	=14
0.r	0.r	2e\	2cc\
.	.	2g\	2b\
.	.	2f\	2a/
.	.	2e\	2cc\
.	.	1g	1b
=15	=15	=15	=15
1A	0.r	2e\	2r
.	.	1f	1a
2A\	.	.	.
2A\	.	4e\	4g/
.	.	4d\	4f/
2A\	.	2c\	2e/
2A\	.	2A/	2f/
=16	=16	=16	=16
2G\	1e	2B\	2g/
1A	.	2c\	2e/
.	2e\	1A	1a
4G\	2e\	.	.
4F\	.	.	.
1E	2e\	[1B	1g
.	2e\	.	.
=17	=17	=17	=17
!!linebreak:default
2r	2d\	1B]	1.g
1E	1e	.	.
.	.	1r	.
2F\	4d\	.	2a/
.	4c\	.	.
1G	1B	1d	1b
=18	=18	=18	=18
2A\	2r	2c\	2e/
2E\	1B	2e\	1g
2G\	.	2d\	.
2A\	2c\	2c\	2e/
1F	1d	1A	1a
=19	=19	=19	=19
1E	2e\	1.B	1.g
.	2B\	.	.
1r	2d\	.	.
.	2e\	2G/	2g/
1r	1c	1A	2.e/
.	.	.	4f/
=20	=20	=20	=20
0.r	1B	1G	0g
.	1r	2r	.
.	.	2G/	.
.	1r	2A/	2r
.	.	2B\	2d/
=21	=21	=21	=21
!!linebreak:default
0.r	0.r	2c\	2e/
.	.	2A/	2f/
.	.	2B\	2g/
.	.	2c\	2e/
.	.	1A	4f/
.	.	.	4e/
.	.	.	[2a/
=22	=22	=22	=22
0.r	0.r	1B	2a/]
.	.	.	2g#i/
.	.	1A	2a/
.	.	.	2cc\
.	.	1d	2b\
.	.	.	[2a/
=23	=23	=23	=23
0.r	0.r	1d	4a/]
.	.	.	4g/
.	.	.	2f/
.	.	1c	1e
.	.	2r	1f
.	.	2A/	.
=24	=24	=24	=24
1G	0.r	1B	2.d/
.	.	.	4e/
2F\	.	2A/	2f/
2G\	.	1d	2d/
1E	.	.	1e
.	.	2c#i\	.
=25	=25	=25	=25
!!pagebreak:default
1D	1d	1d	2.f/
.	.	.	4g/
1r	2c\	2e\	1a
.	2d\	2f\	.
1G	1B	2d\	2r
.	.	[2e\	2g/
=26	=26	=26	=26
2F\	1A	4e\]	2a/
.	.	4d\	.
2D\	.	1d	2f/
1E	1r	.	1g
.	.	2c#i\	.
1D	1d	1d	1f
=27	=27	=27	=27
1A	2c\	2e\	1cc
.	2A/	2.f\	.
2G\	1B	.	2b\
.	.	4e\	.
2E\	.	1e	2g/
1F	1A	.	1a
.	.	2d\	.
=28	=28	=28	=28
1E	1e	2e\	2g/
.	.	2E/	2.cc\
1r	2d\	2F/	.
.	.	.	4b\
.	2B\	2G/	1b
1r	1c	2E/	.
.	.	2F/	2a/
=29	=29	=29	=29
!!linebreak:default
2r	1B	4G/	2b\
.	.	4E/	.
2E\	.	2e\	2g/
2F\	1r	2A/	2a/
2E\	.	2.e\	2g/
1F	1r	.	1a
.	.	4c\	.
.	.	2d\	.
=30	=30	=30	=30
1E	2r	2e\	1g
.	2B\	2.E/	.
1r	2c\	.	2r
.	.	4F/	.
.	2B\	2G/	2g/
1r	1c	2.C/	2.e/
.	.	4D/	4f/
=31	=31	=31	=31
2r	1B	2E/	1g
2E\	.	2e\	.
2F\	1r	2A/	2a/
2E\	.	1e	2g/
1F	1r	.	1a
.	.	2d\	.
=32	=32	=32	=32
1E	2r	2e\	1g
.	2B\	2.E/	.
1r	2c\	.	2r
.	.	4F/	.
.	2B\	2G/	2g/
1r	1c	2.C/	2.e/
.	.	4D/	4f/
=33	=33	=33	=33
!!linebreak:default
2r	1B	2E/	1g
2E\	.	2e\	.
2F\	1r	2A/	2a/
2E\	.	2.e\	2g/
1F	1r	.	1a
.	.	4d\	.
.	.	4d\	.
.	.	4c\	.
=34	=34	=34	=34
[0.El	2r	[0.el	[0.gl
.	2B\	.	.
.	2c\	.	.
.	2B\	.	.
.	1c	.	.
=35	=35	=35	=35
0.E]	0.Bl	0.e]	0.g]
!!LO:LB:i:g=z
=36||	=36||	=36||	=36||
*>B	*>B	*>B	*>B
!!section: Qui tollis
!!!OMD: Qui tollis
*M2/1	*M2/1	*M2/1	*M2/1
*met(C|)	*met(C|)	*met(C|)	*met(C|)
0r	0r	0r	0e
=37	=37	=37	=37
0r	0r	0A	1a
.	.	.	1a
=38	=38	=38	=38
0r	0r	1d	1f
.	.	1d	1f
=39	=39	=39	=39
!!pagebreak:default
0r	0r	1B	1g
.	.	1B	1g
=40	=40	=40	=40
0r	0r	1c	1e
.	.	1c	[1a
=41	=41	=41	=41
0D	0r	1A	2a/]
.	.	.	2g/
.	.	[1d	2.f/
.	.	.	4e/
=42	=42	=42	=42
1G	0r	2d\]	1d
.	.	2c\	.
1G	.	2.B\	[1g
.	.	4A/	.
=43	=43	=43	=43
1E	0r	1G	2g/]
.	.	.	2f/
1E	.	[1c	2.e/
.	.	.	4d/
=44	=44	=44	=44
1F	0A	2c\]	1c
.	.	4B\	.
.	.	4A/	.
1F	.	2A/	2r
.	.	[2d\	[2f/
=45	=45	=45	=45
!!linebreak:default
0D	1d	2d\]	4f/]
.	.	.	4d/
.	.	2B\	1g
.	1d	1A	.
.	.	.	2f/
=46	=46	=46	=46
0r	1B	1G	1.g
.	1B	2r	.
.	.	2G/	2e/
=47	=47	=47	=47
1r	1c	2.A/	0e
.	.	4B\	.
1A	1c	2c\	.
.	.	[2A/	.
=48	=48	=48	=48
1.c	0A	4A/]	1r
.	.	4B\	.
.	.	4c\	.
.	.	4d\	.
.	.	1e	[1cc
2B\	.	.	.
=49	=49	=49	=49
2A\	0r	2r	2cc\]
2G\	.	1e	2b\
1F	.	.	1a
.	.	2d\	.
=50	=50	=50	=50
0E	1r	2e\	2.g/
.	.	2E/	.
.	.	.	4a/
.	1e	2.G/	2b\
.	.	.	2cc\
.	.	4A/	.
=51	=51	=51	=51
!!linebreak:default
0r	1.g	2B\	2b\
.	.	4E/	1ee
.	.	4F/	.
.	.	4G/	.
.	.	4A/	.
.	2f\	2B\	2dd\
=52	=52	=52	=52
0r	2e\	2c\	2cc\
.	2d\	2G/	1b
.	1c	1A	.
.	.	.	2a/
=53	=53	=53	=53
0G	0B	0E	1b
.	.	.	2r
.	.	.	2b\
=54	=54	=54	=54
1A	0r	1r	1cc
1A	.	1e	1cc
=55	=55	=55	=55
1F	0r	2.f\	1a
.	.	4e\	.
1F	.	2c\	1a
.	.	[2d\	.
=56	=56	=56	=56
1G	0d	4d\]	1b
.	.	4c\	.
.	.	2.B\	.
1G	.	.	1b
.	.	4G/	.
.	.	[2G/	.
=57	=57	=57	=57
!!pagebreak:default
0E	1e	2G/]	1g
.	.	2.g\	.
.	1e	.	2r
.	.	4f\	.
.	.	4e\	[2g/
.	.	4d\	.
=58	=58	=58	=58
0r	1c	4e\	4g/]
.	.	4d\	4f/
.	.	4c\	4e/
.	.	4B\	4d/
.	1c	1A	1e
=59	=59	=59	=59
1r	1d	1.B	1d
[1G	1d	.	2r
.	.	2G/	[2dd\
=60	=60	=60	=60
2G\]	0B	1G	2dd\]
2G\	.	.	2dd\
1G	.	2.g\	1dd
.	.	4f\	.
=61	=61	=61	=61
1A	0r	4e\	1cc
.	.	4d\	.
.	.	1c	.
1A	.	.	1cc
.	.	4B\	.
.	.	4A/	.
=62	=62	=62	=62
1.B	1r	0G	1.dd
.	[1d	.	.
2A\	.	.	2cc\
=63	=63	=63	=63
!!linebreak:default
1G	2d\	1r	2b\
.	2d\	.	2g/
1F	1d	1A	1a
=64	=64	=64	=64
0E	1e	1B	1g
.	1e	1c	2r
.	.	.	2g/
=65	=65	=65	=65
0D	1.f	1.d	2a/
.	.	.	2d/
.	.	.	2f/
.	2e\	2e\	2g/
=66	=66	=66	=66
0r	1d	1f	2a/
.	.	.	2b\
.	1c	1e	2cc\
.	.	.	[2a/
=67	=67	=67	=67
0r	0B	2d\	2a/]
.	.	2G/	4g#i/
.	.	.	4f#i/
.	.	2.d\	1g#
.	.	4e\	.
=68	=68	=68	=68
1D	0A	1f	0a
1F	.	2r	.
.	.	2A/	.
=69	=69	=69	=69
!!linebreak:default
2E\	0r	1c	0r
2E\	.	.	.
2G\	.	2B\	.
2G\	.	2B\	.
=70	=70	=70	=70
1D	0r	2d\	0r
.	.	2d\	.
[1F	.	1A	.
=71	=71	=71	=71
1F]	1A	2.c\	1r
.	.	4d\	.
1E	1c	2e\	1e
.	.	[2E/	.
=72	=72	=72	=72
0r	2B\	4E/]	1g
.	.	4F/	.
.	2B\	2G/	.
.	2d\	2.D/	2f/
.	2d\	.	2f/
.	.	4E/	.
=73	=73	=73	=73
0r	1A	4F/	2a/
.	.	4G/	.
.	.	2.A/	2a/
.	[1c	.	2.e/
.	.	4G/	.
.	.	2A/	.
.	.	.	4f/
=74	=74	=74	=74
1E	1c]	2E/	0g
.	.	2.e\	.
1E	1B	.	.
.	.	4d\	.
.	.	2e\	.
=75	=75	=75	=75
!!pagebreak:default
2.F\	0r	2c\	2r
.	.	1f	2a/
4D\	.	.	.
2D\	.	.	2b\
[2A\	.	2e\	[2cc\
=76	=76	=76	=76
4A\]	0r	2f\	4cc\]
4G\	.	.	4b\
2E\	.	1e	2g/
1F	.	.	1a
.	.	2d\	.
=77	=77	=77	=77
0E	1B	[0e	0g
.	1B	.	.
=78	=78	=78	=78
0r	2.c\	0e]	2r
.	.	.	2g/
.	4A/	.	.
.	2A/	.	2a/
.	[2e\	.	[2cc\
=79	=79	=79	=79
*	*	*M3/1	*
*	*	*met(3)	*
0r	4e\]	3%2e	4cc\]
.	4d\	.	4b\
.	2B\	.	1b
.	.	3%2e	.
.	1c	.	.
.	.	3%2e	.
.	.	.	2a/
=80	=80	=80	=80
*M3/1	*	*	*M3/1
*met(3)	*	*	*met(3)
!	!LO:N:vis=0	!	!
1G	0.B	0d	0b
1G	.	.	.
1G	.	1d	1r
=81	=81	=81	=81
!!linebreak:default
!	!LO:N:vis=0	!	!
0E	0.r	1.e	1g
.	.	.	1g
.	.	2d\	.
1E	.	1B	1g
=82	=82	=82	=82
!	!LO:N:vis=0	!	!
1.A	0.r	0c	0e
2G\	.	.	.
2F\	.	1A	1a
2E\	.	.	.
=83	=83	=83	=83
*	*M3/1	*	*
*	*met(3)	*	*
0.D	1d	0A	1.a
.	1d	.	.
.	.	.	2g/
.	1d	[1d	2f/
.	.	.	2e/
=84	=84	=84	=84
0.r	0B	1d]	0d
.	.	1G	.
.	1B	1G	1d
=85	=85	=85	=85
0.r	1.e	1E	0g
.	.	1E	.
.	2d\	.	.
.	2c\	[1A	1e
.	2B\	.	.
=86	=86	=86	=86
1F	0.A	2A/]	0a
.	.	2G/	.
1F	.	2F/	.
.	.	2E/	.
1F	.	1D	1r
=87	=87	=87	=87
!!linebreak:default
0D	0.r	1d	1f
.	.	1d	1f
1D	.	1d	1f
=88	=88	=88	=88
1.G	0.r	1B	1d
.	.	1B	1d
2F\	.	.	.
2E\	.	1B	1g
2D\	.	.	.
=89	=89	=89	=89
0C	1c	0.e	1.g
.	1c	.	.
.	.	.	2f/
1r	1c	.	2e/
.	.	.	2d/
=90	=90	=90	=90
0F	0A	1r	0c
.	.	1r	.
1F	1A	1A	1r
=91	=91	=91	=91
0D	1.d	1B	0f
.	.	1A	.
.	2c\	.	.
1D	2B\	1d	1f
.	2A/	.	.
=92	=92	=92	=92
1.E	0G	0B	1.g
2F\	.	.	2f/
1G	1r	1B	1d
=93	=93	=93	=93
!!pagebreak:default
0.C	0c	0G	0e
.	1c	1G	1r
=94	=94	=94	=94
0.r	0A	0F	1f
.	.	.	1f
.	1A	1D	1f
=95	=95	=95	=95
0.r	1.B	0G	0d
.	2c\	.	.
.	1d	1G	1d
=96	=96	=96	=96
*M2/1	*M2/1	*M2/1	*M2/1
*met(C|)	*met(C|)	*met(C|)	*met(C|)
1r	0G	1E	2.e/
.	.	.	4f/
1E	.	2r	1g
.	.	[2e\	.
=97	=97	=97	=97
1F	0r	2e\]	1a
.	.	2d\	.
2E\	.	1e	2g/
[2A\	.	.	[2cc\
=98	=98	=98	=98
4A\]	0r	2r	4cc\]
4G\	.	.	4b\
2E\	.	1e	2g/
1F	.	.	1a
.	.	2d\	.
=99	=99	=99	=99
!!linebreak:default
[0El	1r	1e	1g
.	1B	2E/	2r
.	.	2G/	2g/
=100	=100	=100	=100
0E_	1c	2.C/	2.e/
.	.	4D/	4f/
.	2B\	2E/	1g
.	[2e\	2C/	.
=101	=101	=101	=101
0E_	4e\	1G	2r
.	4d\	.	.
.	2B\	.	2g/
.	1c	1C	2.e/
.	.	.	4f/
=102	=102	=102	=102
0E]	0Bl	0Gl	0gl
=103||	=103||	=103||	=103||
*M3/1	*M3/1	*M3/1	*M3/1
*met(O|)	*met(O|)	*met(O|)	*met(O|)
0.r	0.r	0.r	1.f
.	.	.	2e/
.	.	.	1d
=104	=104	=104	=104
0.r	0.r	1.c	2.c/
.	.	.	4d/
.	.	.	4e/
.	.	.	4f/
.	.	2B\	1g
.	.	1A	.
.	.	.	2f#i/
=105	=105	=105	=105
!!linebreak:default
1.G	0.r	2.G/	2g/
.	.	.	2d/
.	.	4A/	.
.	.	4B\	2e/
.	.	4c\	.
2F\	.	1d	2f/
1E	.	.	1g
.	.	2c#i\	.
=106	=106	=106	=106
2.D\	1.d	2d\	1f
.	.	1f	.
4E\	.	.	.
4F\	.	.	1a
4G\	.	.	.
1A	2c\	2e\	.
.	1B	1d	1b
2G#i\	.	.	.
=107	=107	=107	=107
1A	2.A/	2c\	2.cc\
.	.	1F	.
.	4B\	.	4b\
1r	4c\	.	2a/
.	4d\	.	.
.	1e	2G/	2g/
1r	.	2A/	1f
.	2d\	2B\	.
=108	=108	=108	=108
1E	1e	4c\	2e/
.	.	4B\	.
.	.	2.e\	2.g/
1E	1r	.	.
.	.	4d\	4f/
.	.	4c\	2g/
.	.	4B\	.
1F	1r	1A	2a/
.	.	.	2cc\
=109	=109	=109	=109
0G	1B	4G/	2b\
.	.	4A/	.
.	.	4B\	2g/
.	.	4c\	.
.	1B	2d\	2r
.	.	2G/	1g
1E	1c	2r	.
.	.	2G/	2e/
=110	=110	=110	=110
1D	0d	2A/	2f/
.	.	1B	1d
0G	.	.	.
.	.	2G/	1dd
.	1B	2d\	.
.	.	4e\	2b\
.	.	4d\	.
=111	=111	=111	=111
!!pagebreak:default
1F	1A	1.f	2cc\
.	.	.	1a
0D	0d	.	.
.	.	2d\	2f/
.	.	1f	2.a/
.	.	.	4b\
=112	=112	=112	=112
1.A	1c	2e\	1.cc
.	.	4A/	.
.	.	4B\	.
.	0A	4c\	.
.	.	4d\	.
2G\	.	1e	2b\
1F	.	.	1a
.	.	2A/	.
=113	=113	=113	=113
1E	1.e	2B\	1g
.	.	1c	.
0A	.	.	1r
.	2d\	2d\	.
.	1c	2e\	1a
.	.	2c\	.
=114	=114	=114	=114
1G	1B	2d\	2b\
.	.	1e	1g
0E	0e	.	.
.	.	2c\	2.g/
.	.	1B	.
.	.	.	4f/
.	.	.	2g/
=115	=115	=115	=115
1F	1d	1A	4a/
.	.	.	4g/
.	.	.	4f/
.	.	.	4e/
0G	0B	2r	2d/
.	.	2G/	2.g/
.	.	2d\	.
.	.	.	4f/
.	.	2e\	2g/
=116	=116	=116	=116
1F	1c	2.f\	2a/
.	.	.	2f/
.	.	4F/	.
0D	0d	2F/	2r
.	.	2B-\	2.f/
.	.	1A	.
.	.	.	4e/
.	.	.	2f/
=117	=117	=117	=117
!!linebreak:default
1E	1c	1G	4g/
.	.	.	4f/
.	.	.	4e/
.	.	.	4d/
0F	0A	2r	2c/
.	.	2F/	2.cc\
.	.	2c\	.
.	.	.	4b\
.	.	2d\	[2a/
=118	=118	=118	=118
1E	1B	0e	2a/]
.	.	.	2g#i/
0C	0c	.	2a/
.	.	.	2.gni/
.	.	2E/	.
.	.	.	4f/
.	.	2G/	[2e/
=119	=119	=119	=119
1D	1B	2F/	4e/]
.	.	.	4d/
.	.	2D/	1d
0E	0G	1B	.
.	.	.	1g
.	.	1c	.
.	.	.	4f/
.	.	.	4e/
=120	=120	=120	=120
1D	1A	1d	2.f/
.	.	.	4d/
1r	0B	1G	2d/
.	.	.	1dd
1G	.	2r	.
.	.	2g\	2b\
=121	=121	=121	=121
2A\	1A	2e\	2.cc\
2F\	.	2a\	.
.	.	.	4a/
2G\	1r	2g\	2b\
2A\	.	2.f\	1a
1B-	1d	.	.
.	.	4e\	.
.	.	2d\	2g/
=122	=122	=122	=122
1A	2e\	1c	2a/
.	2c\	.	2e/
2r	2d\	1r	2f/
2G\	2e\	.	1e
2A\	1f	1r	.
2B\	.	.	2d/
=123	=123	=123	=123
!!linebreak:default
2.c\	1e	1A	2e/
.	.	.	2cc\
4B\	.	.	.
2G\	2r	1B	2b\
2B\	2d\	.	2dd\
1A	2e\	1c	2cc\
.	2f\	.	2a/
=124	=124	=124	=124
1G	2.g\	1d	2b\
.	.	.	2.dd\
.	4f\	.	.
2r	2d\	1r	.
.	.	.	4cc\
2F\	2f\	.	2a/
2G\	1e	1r	2b\
2A\	.	.	2cc\
=125	=125	=125	=125
2.B-i\	1d	1G	2.dd\
4A\	.	.	4cc\
2F\	2r	1A	2a/
2A\	2c\	.	2cc\
1G	2d\	1B	1b
.	2e\	.	.
=126	=126	=126	=126
1F	2.f\	1c	2a/
.	.	.	2.cc\
.	4e\	.	.
2r	2c\	1r	.
.	.	.	4b\
2E\	2e\	.	2g/
2F\	1d	1r	2a/
2G\	.	.	2b\
=127	=127	=127	=127
2.A\	1c	1F	2.cc\
4G\	.	.	4b\
2E\	2r	1G	2g/
2G\	2B\	.	2b\
1F	2c\	1A	1a
.	2d\	.	.
=128	=128	=128	=128
1E	2.e\	2B\	1g
.	.	2c\	.
.	4d\	.	.
2r	2B\	2d\	2r
2D\	2d\	2f\	2f/
2E\	1c	2e\	2g/
2F\	.	2A/	2a/
=129	=129	=129	=129
!!pagebreak:default
2.G\	1B	2r	1d
.	.	2.d\	.
4F\	.	.	.
2D\	2r	.	1a
.	.	4c\	.
2F\	2A/	2d\	.
1E	2B\	2e\	1g
.	2c\	2G/	.
=130	=130	=130	=130
1D	2.d\	2.A/	2f/
.	.	.	2.a/
.	4c\	4B\	.
2r	2A/	4c\	.
.	.	4d\	4g/
2C/	2c\	2e\	2e/
2D\	1B	2d\	2f/
2E\	.	2G/	2g/
=131	=131	=131	=131
!	!LO:N:vis=1	!	!
2.F\	[y0.A	1c	2.a/
4E\	.	.	4g/
4D\	.	0d	4f/
4C/	.	.	4e/
1D	.	.	1f
4C/	.	.	4e/
4BB/	.	.	4d/
=132	=132-	=132	=132
0.AAl	0.A]yy	0.el	0.cl
==	==	==	==
*-	*-	*-	*-
!!!RDF**kern: %=rational rhythm
!!!rscale-alt: 1/4
!!!RDF**kern: l=long note in original notation
!!!RDF**kern: i=musica ficta
!!!ENC: Jesse Rodin; Victoria Chang 2011/04/06
!!!END: 2011/04/06/
!!!SMS: Davison, Missa sine nomine
!!!EED:	Jesse Rodin
!!!EEV:	2011/04/16/
!!!ONB:	Translated from MusicXML and edited on 2011/04/16/ by Craig Sapp
!!muse2ps: T^@{OPR}^u^@{ONM}{. }@{OTL}^C^@{COM}\n@{SCT}^i2I100v85,90,85,100Q16
